public/avatar/hat/313.svg

<svg xmlns:xlink="http://www.w3.org/1999/xlink" height="92.9" width="100.7" xmlns="http://www.w3.org/2000/svg"><use height="42.05" transform="translate(22.15 24.75)" width="32.7" xlink:href="#a"/><defs><g id="a" fill-rule="evenodd"><path d="m3.25-22.2.3.4q1.2.15 1.45 1.35l.05.4-.25.85.2.25.15.45.9.9.1.65-.15.7-.45.5.2.75-.05.25v.2l-.1.3q.8.4.8 1.3v.05q0 .95-.95 1.5l.05.2q0 1-.85 1.45 4.2 6.8 7.55 13.85 3.9 8.3 3.9 11.45l-.1.75q-.2.6-.8.75-.75.15-1.25-1.55-.75-2.7-1.9-4.45-1.3-2-4.1-4.05t-3.8-1.65Q.95 6.55-.7 6.65q-2.25.1-4.75-1.4-.85-.5-3.3 1.5-2.4 1.9-3.6 3.9l-2.05 4.5q-.75 1.8-1.55 1.3l-.5-.75-.05-.45q0-2.7 3.75-10.8Q-9.4-2.9-5.45-9.5l-.15-.5.2-.95q-.8-.35-.95-1.1l-.05-.35.35-1 .2-.85q-.8-.45-.95-1.15l-.05-.35.5-1.25.6-.4-.05-.2q0-.65.6-1.35-.55-.65-.55-1.2l.05-.2q.1-.95.95-1.35l.9-.2.55-.65v-.2q.4-.75 1.4-.95l.1-.2q.3-1 1.5-1.1.75-.05 1.3.4l.3.55 1.1.2.65.9.05.35-.1.2.25.2" fill="#cf5600" transform="translate(16.5 25)"/><path d="M16.2 14.85q.15 1.65-.6 2.05Q13.15 1.9 3.95-.4q-8-2.65-13.3 3.15-3.75 4.2-6.6 13.6-.85-.7.35-5.05 1.85-6.5 6.35-15.15 5.55-10.6 9.05-10.6 3.7 0 10 12.5 5.8 11.45 6.4 16.8" fill="#7d3c00" transform="translate(16.5 25)"/><path d="m15.6 16.9-.3.15q-.7.15-1.1-1.85-.55-3-1.75-4.85-1.3-2-4.25-3.6-3.05-1.7-4.6-1.2l-4.25 1.2q-1.65.2-3.7-1.05-2.05-1.25-4.7.7-2 1.45-3.55 3.95-.9 1.5-1.85 4.65-.6 1.9-1.35 1.45l-.15-.1q2.85-9.4 6.6-13.6 5.3-5.8 13.3-3.15 9.2 2.3 11.65 17.3" fill="#cf5600" transform="translate(16.5 25)"/><path d="m1.5-21.45-.5.25.55.4-.05-.65m3.6 1.15.05.35-.25.85.25.3.1.45q.7.25.9.85l.15.7-.2.7-.45.5.2.75-.05.25.05.2-.15.3q.85.35.85 1.25v.1q-.05 1-.95 1.45l.05.25q0 1.1-1 1.55l-1.35.05-.2-.1-.6.6-.65.25-.7.8q-1.05.75-2.4 0l-.25-.3q-.65.2-1.15 0l-.55-.35-1.05.2-.95-.55-.3-.95.2-.95q-.75-.35-.9-1.1l-.05-.4.3-.95.2-.85q-.8-.45-.95-1.15l-.05-.35q0-.8.55-1.25l.55-.4v-.2q0-.65.55-1.4-.5-.5-.5-1.15v-.2q.15-.95 1-1.4l.9-.15.55-.65v-.2q.4-.75 1.4-.95l.05-.2q.35-1 1.5-1.1.85-.05 1.3.4l.3.55 1.1.2.7.9v.3l-.05.25.25.2.25.4q1.2.1 1.45 1.35" fill="#eb4600" transform="translate(16.5 25)"/><path d="M1.3-19.55q.8.4.5 1.4l.65.05q.6.2.65.85.1 1-1.1.85.5 1.4-.3 1.6-.5.15-1.1-.5L.05-16q-.45 1.15-1.15 1-1.45-.3-.6-1.7-1.25-.1-1-.95.3-.8 1.15-.65l-.05-.55q.05-.6.7-.7.95-.15 1 1.1l.3-.7q.4-.6.9-.4" fill="#ffd400" transform="translate(16.5 25)"/><path d="M-2.2-21.95q.85.2.75 1.1 1.05-.4 1.25.55.2 1-1.05 1.1 1.5.35 1.15 1.15-.3.8-1.35.55.2 1.25-.8 1.35-.6.1-.85-.45l-.1-.6q-1.35.55-1.6-.2-.1-.45.5-1.15l.6-.55q-1.15-.4-1.05-1.15.2-1.4 1.65-.65.05-1.25.9-1.05m1.1 8.2q.5.85-.6 1.35l.75.05q.75.1.7.65-.05.9-1.15 1 .6 1.1-.3 1.55-.55.3-.95-.2l-.3-.5q-1.1.95-1.55.3-.3-.4.1-1.2l.4-.75q-1.25 0-1.4-.7-.3-1.5 1.35-1.2-.35-1.2.5-1.3.9-.05 1.05.8l.5-.25q.6-.15.9.4" fill="#f80" transform="translate(16.5 25)"/><path d="M-1.45-15.7q.75.1.7.65-.05.9-1.1 1 .6 1.1-.3 1.55-.55.3-.95-.2l-.3-.5q-1.1 1-1.6.35-.3-.4.1-1.25l.4-.75q-1.2 0-1.35-.7-.3-1.45 1.35-1.15-.4-1.2.5-1.3.9-.1 1.05.8l.5-.3q.6-.15.9.4.5.85-.65 1.4h.75m2 2.25q-.3-1.5 1.35-1.2-.35-1.2.5-1.25.9-.05 1.05.8l.5-.3q.6-.15.9.4.5.85-.6 1.4H5q.75.1.7.65-.05.9-1.1 1 .6 1.1-.3 1.55-.55.3-1-.2l-.3-.5q-1.1 1-1.55.3-.3-.4.1-1.2l.4-.75q-1.25 0-1.4-.7" fill="#f80" transform="translate(16.5 25)"/><path d="M3.95 4.55-.5 5.8q-2.05.15-4.35-1.25-1.35-.8-3.85 1-2.4 1.75-4.05 4.45-.9 1.45-1.7 4.1-.55 1.8-.9 1.6-1.5-.9 5.1-15Q-3.6-13.6-.2-13.6q3.4 0 10.35 14.7 6.9 14.65 5 15.1-.5.15-1.1-1.85-.85-2.75-1.75-4.1Q10.6 7.6 8 5.85 5.4 4 3.95 4.55m.5-22.45q.7 0 .9.6.4.95-.8 1.2.9 1.2.2 1.6l-1.25-.15-.7-.5q-.05 1.2-.8 1.3-1.4.1-1.05-1.45-1.25.25-1.25-.6t.9-1q-.15 0-.25-.5-.05-.6.5-.85.9-.45 1.3.7l.1-.75q.15-.7.7-.6.85.1.9 1.15l.6-.15" fill="#f80" transform="translate(16.5 25)"/><path d="M2.3-21.95q.85.25.7 1.1l.6-.1q.6.05.7.65.2 1-1.05 1.1 1.5.35 1.15 1.15-.3.8-1.35.55.2 1.25-.8 1.35-.6.1-.85-.45l-.1-.6q-1.4.55-1.6-.2-.15-.45.45-1.15l.65-.55q-1.15-.4-1.05-1.15.2-1.4 1.65-.65.05-1.25.9-1.05" fill="#f80" transform="translate(16.5 25)"/><path d="M2.15-19.95q-.3 1.45-1.7.55-.1 1.3-.95 1-.8-.25-.65-1.1-1.1.3-1.25-.65-.1-.6.5-.9l.6-.15-.7-.3q-.6-.4-.4-.85.4-.8 1.4-.5l.05-.65q.2-.65.8-.7 1.05-.05.9 1.15 1.4-.5 1.6.3.2.75-1.2 1.65 1.15.45 1 1.15" fill="#ffc98a" transform="translate(16.5 25)"/><path d="M1.65-14.75q.1 1-1.1.9.45 1.4-.3 1.6-.5.1-1.1-.55l-.55-.65q-.45 1.15-1.2 1-1.4-.3-.55-1.7-1.25-.1-1-.95.3-.8 1.15-.65l-.05-.6q.05-.55.65-.65 1-.15 1.05 1.1l.3-.7q.4-.65.9-.4.8.35.5 1.4l.65.05q.6.2.65.8" fill="#ffd400" transform="translate(16.5 25)"/><path d="M3.7-15.55q.65.2.7.8.05 1-1.15.9.5 1.4-.3 1.6-.45.1-1.1-.55l-.55-.65q-.45 1.15-1.15 1-1.45-.3-.6-1.7-1.25-.1-.95-.95.25-.8 1.1-.65l-.05-.6q.1-.55.7-.65 1-.15 1.05 1.1l.3-.7q.4-.65.85-.4.8.35.5 1.4l.65.05" fill="#f80" transform="translate(16.5 25)"/><path d="M.5-9.7Q0-12.4.35-13.5 4-12 10.5 2q6.4 13.8 4.65 14.2-.5.15-1.1-1.8-.9-2.7-1.75-4.05-1.75-2.7-4.3-4.5Q5.4 4 3.95 4.55L-.5 5.8q-2.05.15-4.35-1.25l-.85-.2 1.8-.25q2.15-.05 3.65-1.25Q2.5.7.5-9.7" fill="#ed7e00" transform="translate(16.5 25)"/><path d="m1.3-11.4 1.2-.15 1.05 1.45 1.5 2.45q1.9 3.35 3.9 8Q9.7 2.1 12.2 6.2q1.75 3 2.6 6.1.95 3.75.35 3.9-.35.1-.75-1.1l-1.05-2.5-3.6-9.9Q9.25 1.35 8.2.85 7.1.25 6.5-.95L4.9-4.1 3-6.9 1.9-8.95Q.8-10.3 1-11l.3-.4" fill="#e36e00" transform="translate(16.5 25)"/><path d="M1.15-14.2q.7 0 .9.6l.15.4q.05.55-.25 1.05l.7 1v.1q.1.8-.6 1.3l-.8.2-.55.8q-.7.5-1.45 0l-.6-.65q-1.05 0-1.3-1.05v-.45l.25-.6-.2-.2-.15-.6.1-.35q.3-.7 1.1-.9l.1-.5.8-.6.95.15.35.4.5-.1" fill="#eb4600" transform="translate(16.5 25)"/><path d="M1.95-14.2q.3.75-.9 1.8l.6.25q.55.3.55.75-.1 1.5-1.6.85.05 1.25-.8 1.1-.85-.15-.8-1-1.05.45-1.35-.45-.2-.6.35-.95l.6-.25-.7-.2q-.7-.3-.55-.8l.75-.65.55-.05-.05-.65q.1-.65.7-.8 1-.2 1.05 1l.7-.25q.7-.15.9.3" fill="#ffc98a" transform="translate(16.5 25)"/><path d="M1.45-16.9q-.1 1.5-1.6.85.05 1.25-.8 1.1-.85-.15-.8-1-1.05.45-1.35-.45-.2-.6.35-.95l.6-.25-.7-.2q-.7-.3-.55-.8.15-.55.75-.65l.55-.05-.05-.65q.1-.65.7-.8 1-.2 1.05 1L.3-20q.7-.15.9.3.3.75-.9 1.8l1.15 1" fill="#ffc98a" transform="translate(16.5 25)"/><path d="M.55-14.1q-.3 1.5-1.7.6-.15 1.25-.95 1-.85-.3-.7-1.15-1.05.35-1.2-.65-.1-.6.45-.9l.6-.15-.65-.3q-.65-.4-.4-.85.2-.5.85-.55l.55.05.05-.65q.2-.65.8-.7 1-.05.9 1.15l.7-.15q.75-.05.85.45.2.75-1.15 1.65l.55.3q.5.4.45.85" fill="#ffc98a" transform="translate(16.5 25)"/><path d="M-7.8.4q4.6-7.8 7.2-8.25Q.45.55-2.6 1.4q-3.6 1.05-6.8 4l-2.45 2.75L-7.8.4" fill="#ffab4c" transform="translate(16.5 25)"/></g></defs></svg>

<?xml version="1.0" encoding="UTF-8" standalone="no"?>
<svg xmlns:xlink="http://www.w3.org/1999/xlink" height="92.9px" width="100.7px" xmlns="http://www.w3.org/2000/svg">
  <g transform="matrix(1.0, 0.0, 0.0, 1.0, 38.65, 49.75)">
    <use height="42.05" transform="matrix(1.0, 0.0, 0.0, 1.0, -16.5, -25.0)" width="32.7" xlink:href="#shape0"/>
  </g>
  <defs>
    <g id="shape0" transform="matrix(1.0, 0.0, 0.0, 1.0, 16.5, 25.0)">
      <path d="M3.25 -22.2 L3.55 -21.8 Q4.75 -21.65 5.0 -20.45 L5.05 -20.05 4.8 -19.2 5.0 -18.95 5.15 -18.5 6.05 -17.6 6.15 -16.95 6.0 -16.25 5.55 -15.75 5.75 -15.0 5.7 -14.75 5.7 -14.55 5.6 -14.25 Q6.4 -13.85 6.4 -12.95 L6.4 -12.9 Q6.4 -11.95 5.45 -11.4 L5.5 -11.2 Q5.5 -10.2 4.65 -9.75 8.85 -2.95 12.2 4.1 16.1 12.4 16.1 15.55 L16.0 16.3 Q15.8 16.9 15.2 17.05 14.45 17.2 13.95 15.5 13.2 12.8 12.05 11.05 10.75 9.05 7.95 7.0 5.15 4.95 4.15 5.35 0.95 6.55 -0.7 6.65 -2.95 6.75 -5.45 5.25 -6.3 4.75 -8.75 6.75 -11.15 8.65 -12.35 10.65 L-14.4 15.15 Q-15.15 16.95 -15.95 16.45 L-16.45 15.7 -16.5 15.25 Q-16.5 12.55 -12.75 4.45 -9.4 -2.9 -5.45 -9.5 L-5.6 -10.0 -5.4 -10.95 Q-6.2 -11.3 -6.35 -12.05 L-6.4 -12.4 -6.05 -13.4 -5.85 -14.25 Q-6.65 -14.7 -6.8 -15.4 L-6.85 -15.75 -6.35 -17.0 -5.75 -17.4 -5.8 -17.6 Q-5.8 -18.25 -5.2 -18.95 -5.75 -19.6 -5.75 -20.15 L-5.7 -20.35 Q-5.6 -21.3 -4.75 -21.7 L-3.85 -21.9 -3.3 -22.55 -3.3 -22.75 Q-2.9 -23.5 -1.9 -23.7 L-1.8 -23.9 Q-1.5 -24.9 -0.3 -25.0 0.45 -25.05 1.0 -24.6 L1.3 -24.05 2.4 -23.85 3.05 -22.95 3.1 -22.6 3.0 -22.4 3.25 -22.2" fill="#cf5600" fill-rule="evenodd" stroke="none"/>
      <path d="M16.2 14.85 Q16.35 16.5 15.6 16.9 13.15 1.9 3.95 -0.4 -4.05 -3.05 -9.35 2.75 -13.1 6.95 -15.95 16.35 -16.8 15.65 -15.6 11.3 -13.75 4.8 -9.25 -3.85 -3.7 -14.45 -0.2 -14.45 3.5 -14.45 9.8 -1.95 15.6 9.5 16.2 14.85" fill="#7d3c00" fill-rule="evenodd" stroke="none"/>
      <path d="M15.6 16.9 L15.3 17.05 Q14.6 17.2 14.2 15.2 13.65 12.2 12.45 10.35 11.15 8.35 8.2 6.75 5.15 5.05 3.6 5.55 L-0.65 6.75 Q-2.3 6.95 -4.35 5.7 -6.4 4.45 -9.05 6.4 -11.05 7.85 -12.6 10.35 -13.5 11.85 -14.45 15.0 -15.05 16.9 -15.8 16.45 L-15.95 16.35 Q-13.1 6.95 -9.35 2.75 -4.05 -3.05 3.95 -0.4 13.15 1.9 15.6 16.9" fill="#cf5600" fill-rule="evenodd" stroke="none"/>
      <path d="M1.5 -21.45 L1.0 -21.2 1.55 -20.8 1.5 -21.45 M5.1 -20.3 L5.15 -19.95 4.9 -19.1 5.15 -18.8 5.25 -18.35 Q5.95 -18.1 6.15 -17.5 L6.3 -16.8 6.1 -16.1 5.65 -15.6 5.85 -14.85 5.8 -14.6 5.85 -14.4 5.7 -14.1 Q6.55 -13.75 6.55 -12.85 L6.55 -12.75 Q6.5 -11.75 5.6 -11.3 L5.65 -11.05 Q5.65 -9.95 4.65 -9.5 L3.3 -9.45 3.1 -9.55 2.5 -8.95 1.85 -8.7 1.15 -7.9 Q0.1 -7.15 -1.25 -7.9 L-1.5 -8.2 Q-2.15 -8.0 -2.65 -8.2 L-3.2 -8.55 -4.25 -8.35 -5.2 -8.9 -5.5 -9.85 -5.3 -10.8 Q-6.05 -11.15 -6.2 -11.9 L-6.25 -12.3 -5.95 -13.25 -5.75 -14.1 Q-6.55 -14.55 -6.7 -15.25 L-6.75 -15.6 Q-6.75 -16.4 -6.2 -16.85 L-5.65 -17.25 -5.65 -17.45 Q-5.65 -18.1 -5.1 -18.85 -5.6 -19.35 -5.6 -20.0 L-5.6 -20.2 Q-5.45 -21.15 -4.6 -21.6 L-3.7 -21.75 -3.15 -22.4 -3.15 -22.6 Q-2.75 -23.35 -1.75 -23.55 L-1.7 -23.75 Q-1.35 -24.75 -0.2 -24.85 0.65 -24.9 1.1 -24.45 L1.4 -23.9 2.5 -23.7 3.2 -22.8 3.2 -22.5 3.15 -22.25 3.4 -22.05 3.65 -21.65 Q4.85 -21.55 5.1 -20.3" fill="#eb4600" fill-rule="evenodd" stroke="none"/>
      <path d="M1.3 -19.55 Q2.1 -19.15 1.8 -18.15 L2.45 -18.1 Q3.05 -17.9 3.1 -17.25 3.2 -16.25 2.0 -16.4 2.5 -15.0 1.7 -14.8 1.2 -14.65 0.6 -15.3 L0.05 -16.0 Q-0.4 -14.85 -1.1 -15.0 -2.55 -15.3 -1.7 -16.7 -2.95 -16.8 -2.7 -17.65 -2.4 -18.45 -1.55 -18.3 L-1.6 -18.85 Q-1.55 -19.45 -0.9 -19.55 0.05 -19.7 0.1 -18.45 L0.4 -19.15 Q0.8 -19.75 1.3 -19.55" fill="#ffd400" fill-rule="evenodd" stroke="none"/>
      <path d="M-2.2 -21.95 Q-1.35 -21.75 -1.45 -20.85 -0.4 -21.25 -0.2 -20.3 0.0 -19.3 -1.25 -19.2 0.25 -18.85 -0.1 -18.05 -0.4 -17.25 -1.45 -17.5 -1.25 -16.25 -2.25 -16.15 -2.85 -16.05 -3.1 -16.6 L-3.2 -17.2 Q-4.55 -16.65 -4.8 -17.4 -4.9 -17.85 -4.3 -18.55 L-3.7 -19.1 Q-4.85 -19.5 -4.75 -20.25 -4.55 -21.65 -3.1 -20.9 -3.05 -22.15 -2.2 -21.95" fill="#ff8800" fill-rule="evenodd" stroke="none"/>
      <path d="M-1.1 -13.75 Q-0.6 -12.9 -1.7 -12.4 L-0.95 -12.35 Q-0.2 -12.25 -0.25 -11.7 -0.3 -10.8 -1.4 -10.7 -0.8 -9.6 -1.7 -9.15 -2.25 -8.85 -2.65 -9.35 L-2.95 -9.85 Q-4.05 -8.9 -4.5 -9.55 -4.8 -9.95 -4.4 -10.75 L-4.0 -11.5 Q-5.25 -11.5 -5.4 -12.2 -5.7 -13.7 -4.05 -13.4 -4.4 -14.6 -3.55 -14.7 -2.65 -14.75 -2.5 -13.9 L-2.0 -14.15 Q-1.4 -14.3 -1.1 -13.75" fill="#ff8800" fill-rule="evenodd" stroke="none"/>
      <path d="M-1.45 -15.7 Q-0.7 -15.6 -0.75 -15.05 -0.8 -14.15 -1.85 -14.05 -1.25 -12.95 -2.15 -12.5 -2.7 -12.2 -3.1 -12.7 L-3.4 -13.2 Q-4.5 -12.2 -5.0 -12.85 -5.3 -13.25 -4.9 -14.1 L-4.5 -14.85 Q-5.7 -14.85 -5.85 -15.55 -6.15 -17.0 -4.5 -16.7 -4.9 -17.9 -4.0 -18.0 -3.1 -18.1 -2.95 -17.2 L-2.45 -17.5 Q-1.85 -17.65 -1.55 -17.1 -1.05 -16.25 -2.2 -15.7 L-1.45 -15.7" fill="#ff8800" fill-rule="evenodd" stroke="none"/>
      <path d="M0.55 -13.45 Q0.25 -14.95 1.9 -14.65 1.55 -15.85 2.4 -15.9 3.3 -15.95 3.45 -15.1 L3.95 -15.4 Q4.55 -15.55 4.85 -15.0 5.35 -14.15 4.25 -13.6 L5.0 -13.6 Q5.75 -13.5 5.7 -12.95 5.65 -12.05 4.6 -11.95 5.2 -10.85 4.3 -10.4 3.75 -10.1 3.3 -10.6 L3.0 -11.1 Q1.9 -10.1 1.45 -10.8 1.15 -11.2 1.55 -12.0 L1.95 -12.75 Q0.7 -12.75 0.55 -13.45" fill="#ff8800" fill-rule="evenodd" stroke="none"/>
      <path d="M3.95 4.55 L-0.5 5.8 Q-2.55 5.95 -4.85 4.55 -6.2 3.75 -8.7 5.55 -11.1 7.3 -12.75 10.0 -13.65 11.45 -14.45 14.1 -15.0 15.9 -15.35 15.7 -16.85 14.8 -10.25 0.7 -3.6 -13.6 -0.2 -13.6 3.2 -13.6 10.15 1.1 17.05 15.75 15.15 16.2 14.65 16.35 14.05 14.35 13.2 11.6 12.3 10.25 10.6 7.6 8.0 5.85 5.4 4.0 3.95 4.55" fill="#ff8800" fill-rule="evenodd" stroke="none"/>
      <path d="M4.45 -17.9 Q5.15 -17.9 5.35 -17.3 5.75 -16.35 4.55 -16.1 5.45 -14.9 4.75 -14.5 L3.5 -14.65 2.8 -15.15 Q2.75 -13.95 2.0 -13.85 0.6 -13.75 0.95 -15.3 -0.3 -15.05 -0.3 -15.9 -0.3 -16.75 0.6 -16.9 0.45 -16.9 0.35 -17.4 0.3 -18.0 0.85 -18.25 1.75 -18.7 2.15 -17.55 L2.25 -18.3 Q2.4 -19.0 2.95 -18.9 3.8 -18.8 3.85 -17.75 L4.45 -17.9" fill="#ff8800" fill-rule="evenodd" stroke="none"/>
      <path d="M2.3 -21.95 Q3.15 -21.7 3.0 -20.85 L3.6 -20.95 Q4.2 -20.9 4.3 -20.3 4.5 -19.3 3.25 -19.2 4.75 -18.85 4.4 -18.05 4.1 -17.25 3.05 -17.5 3.25 -16.25 2.25 -16.15 1.65 -16.05 1.4 -16.6 L1.3 -17.2 Q-0.1 -16.65 -0.3 -17.4 -0.45 -17.85 0.15 -18.55 L0.8 -19.1 Q-0.35 -19.5 -0.25 -20.25 -0.05 -21.65 1.4 -20.9 1.45 -22.15 2.3 -21.95" fill="#ff8800" fill-rule="evenodd" stroke="none"/>
      <path d="M2.15 -19.95 Q1.85 -18.5 0.45 -19.4 0.35 -18.1 -0.5 -18.4 -1.3 -18.65 -1.15 -19.5 -2.25 -19.2 -2.4 -20.15 -2.5 -20.75 -1.9 -21.05 L-1.3 -21.2 -2.0 -21.5 Q-2.6 -21.9 -2.4 -22.35 -2.0 -23.15 -1.0 -22.85 L-0.95 -23.5 Q-0.75 -24.15 -0.15 -24.2 0.9 -24.25 0.75 -23.05 2.15 -23.55 2.35 -22.75 2.55 -22.0 1.15 -21.1 2.3 -20.65 2.15 -19.95" fill="#ffc98a" fill-rule="evenodd" stroke="none"/>
      <path d="M1.65 -14.75 Q1.75 -13.75 0.55 -13.85 1.0 -12.45 0.25 -12.25 -0.25 -12.15 -0.85 -12.8 L-1.4 -13.45 Q-1.85 -12.3 -2.6 -12.45 -4.0 -12.75 -3.15 -14.15 -4.4 -14.25 -4.15 -15.1 -3.85 -15.9 -3.0 -15.75 L-3.05 -16.35 Q-3.0 -16.9 -2.4 -17.0 -1.4 -17.15 -1.35 -15.9 L-1.05 -16.6 Q-0.65 -17.25 -0.15 -17.0 0.65 -16.65 0.35 -15.6 L1.0 -15.55 Q1.6 -15.35 1.65 -14.75" fill="#ffd400" fill-rule="evenodd" stroke="none"/>
      <path d="M3.7 -15.55 Q4.35 -15.35 4.4 -14.75 4.45 -13.75 3.25 -13.85 3.75 -12.45 2.95 -12.25 2.5 -12.15 1.85 -12.8 L1.3 -13.45 Q0.85 -12.3 0.15 -12.45 -1.3 -12.75 -0.45 -14.15 -1.7 -14.25 -1.4 -15.1 -1.15 -15.9 -0.3 -15.75 L-0.35 -16.35 Q-0.25 -16.9 0.35 -17.0 1.35 -17.15 1.4 -15.9 L1.7 -16.6 Q2.1 -17.25 2.55 -17.0 3.35 -16.65 3.05 -15.6 L3.7 -15.55" fill="#ff8800" fill-rule="evenodd" stroke="none"/>
      <path d="M0.5 -9.7 Q0.0 -12.4 0.35 -13.5 4.0 -12.0 10.5 2.0 16.9 15.8 15.15 16.2 14.65 16.35 14.05 14.4 13.15 11.7 12.3 10.35 10.55 7.65 8.0 5.85 5.4 4.0 3.95 4.55 L-0.5 5.8 Q-2.55 5.95 -4.85 4.55 L-5.7 4.35 -3.9 4.1 Q-1.75 4.05 -0.25 2.85 2.5 0.7 0.5 -9.7" fill="#ed7e00" fill-rule="evenodd" stroke="none"/>
      <path d="M1.3 -11.4 L2.5 -11.55 3.55 -10.1 5.05 -7.65 Q6.95 -4.3 8.95 0.35 9.7 2.1 12.2 6.2 13.95 9.2 14.8 12.3 15.75 16.05 15.15 16.2 14.8 16.3 14.4 15.1 L13.35 12.6 9.75 2.7 Q9.25 1.35 8.2 0.85 7.1 0.25 6.5 -0.95 L4.9 -4.1 3.0 -6.9 1.9 -8.95 Q0.8 -10.3 1.0 -11.0 L1.3 -11.4" fill="#e36e00" fill-rule="evenodd" stroke="none"/>
      <path d="M1.15 -14.2 Q1.85 -14.2 2.05 -13.6 L2.2 -13.2 Q2.25 -12.65 1.95 -12.15 L2.65 -11.15 2.65 -11.05 Q2.75 -10.25 2.05 -9.75 L1.25 -9.55 0.7 -8.75 Q0.0 -8.25 -0.75 -8.75 L-1.35 -9.4 Q-2.4 -9.4 -2.65 -10.45 L-2.65 -10.9 -2.4 -11.5 -2.6 -11.7 -2.75 -12.3 -2.65 -12.65 Q-2.35 -13.35 -1.55 -13.55 L-1.45 -14.05 -0.65 -14.65 0.3 -14.5 0.65 -14.1 1.15 -14.2" fill="#eb4600" fill-rule="evenodd" stroke="none"/>
      <path d="M1.95 -14.2 Q2.25 -13.45 1.05 -12.4 L1.65 -12.15 Q2.2 -11.85 2.2 -11.4 2.1 -9.9 0.6 -10.55 0.65 -9.3 -0.2 -9.45 -1.05 -9.6 -1.0 -10.45 -2.05 -10.0 -2.35 -10.9 -2.55 -11.5 -2.0 -11.85 L-1.4 -12.1 -2.1 -12.3 Q-2.8 -12.6 -2.65 -13.1 L-1.9 -13.75 -1.35 -13.8 -1.4 -14.45 Q-1.3 -15.1 -0.7 -15.25 0.3 -15.45 0.35 -14.25 L1.05 -14.5 Q1.75 -14.65 1.95 -14.2" fill="#ffc98a" fill-rule="evenodd" stroke="none"/>
      <path d="M1.45 -16.9 Q1.35 -15.4 -0.15 -16.05 -0.1 -14.8 -0.95 -14.95 -1.8 -15.1 -1.75 -15.95 -2.8 -15.5 -3.1 -16.4 -3.3 -17.0 -2.75 -17.35 L-2.15 -17.6 -2.85 -17.8 Q-3.55 -18.1 -3.4 -18.6 -3.25 -19.15 -2.65 -19.25 L-2.1 -19.3 -2.15 -19.95 Q-2.05 -20.6 -1.45 -20.75 -0.45 -20.95 -0.4 -19.75 L0.3 -20.0 Q1.0 -20.15 1.2 -19.7 1.5 -18.95 0.3 -17.9 L1.45 -16.9" fill="#ffc98a" fill-rule="evenodd" stroke="none"/>
      <path d="M0.55 -14.1 Q0.25 -12.6 -1.15 -13.5 -1.3 -12.25 -2.1 -12.5 -2.95 -12.8 -2.8 -13.65 -3.85 -13.3 -4.0 -14.3 -4.1 -14.9 -3.55 -15.2 L-2.95 -15.35 -3.6 -15.65 Q-4.25 -16.05 -4.0 -16.5 -3.8 -17.0 -3.15 -17.05 L-2.6 -17.0 -2.55 -17.65 Q-2.35 -18.3 -1.75 -18.35 -0.75 -18.4 -0.85 -17.2 L-0.15 -17.35 Q0.6 -17.4 0.7 -16.9 0.9 -16.15 -0.45 -15.25 L0.1 -14.95 Q0.6 -14.55 0.55 -14.1" fill="#ffc98a" fill-rule="evenodd" stroke="none"/>
      <path d="M-7.8 0.4 Q-3.2 -7.4 -0.6 -7.85 0.45 0.55 -2.6 1.4 -6.2 2.45 -9.4 5.4 L-11.85 8.15 -7.8 0.4" fill="#ffab4c" fill-rule="evenodd" stroke="none"/>
    </g>
  </defs>
</svg>
